X: 1340
T: Pat Tuohy's Reel
R:Reel
N:Collected by Tuohy
B:O'Neill's 1340
Z:Transcribed by Trish O'Neil
M:C|
L:1/8
K:Em
B>(E {F}(3EDE) BAFE|D2FD ADFD|B>(E {F}(3EDE) BAFE|1(3B^c^d eg fde=c:|2(3B^c^d eg fee2||
e2(ge) Bege|^defg agfg|e2(ge) Bege|^defa gee2|
e2(ge) Bege|^defga2ga|(3bag (af) gefe|(3^c^de fa gee2|]


